images/categories-gadgets.svg

<svg fill="none" height="76" viewBox="0 0 76 76" width="76" xmlns="http://www.w3.org/2000/svg"><circle cx="38" cy="38" fill="#e4e4e4" r="38"/><g fill="#000"><path d="m42.6875 45.0312c-.4312 0-.7813.3501-.7813.7813s.3501.7813.7813.7813.7813-.3501.7813-.7813-.3501-.7813-.7813-.7813z"/><path d="m54.0938 18h-32.1876c-2.1539 0-3.9062 1.7523-3.9062 3.9062v23.9063c0 2.1539 1.7523 3.9063 3.9062 3.9063h12.1876v3.5937h-.7813c-1.0431 0-2.0236.4065-2.7618 1.1444-.738.7382-1.1445 1.7188-1.1445 2.7619 0 .4315.3498.7812.7813.7812h15.625c.4315 0 .7813-.3497.7813-.7812 0-2.154-1.7524-3.9063-3.9063-3.9063h-.7813v-3.5937h12.1876c2.1539 0 3.9062-1.7524 3.9062-3.9063v-23.9063c0-2.1539-1.7523-3.9062-3.9062-3.9062zm-32.1876 1.5625h32.1876c1.2924 0 2.3437 1.0513 2.3437 2.3437v20h-3.5937v-17.9687c0-.4315-.3498-.7813-.7813-.7813h-6.25c-.4315 0-.7813.3498-.7813.7813v17.9687h-3.9105c-.0082-.8081-.0293-1.6046-.0628-2.3773-.1368-3.1817-.4483-5.3131-.6104-6.2506 1.6119-1.1868 2.052-3.3865 1.0666-5.0955l-2.7078-4.6899c-.1398-.2417-.3977-.3907-.6766-.3907-.2792 0-.5371.149-.6766.3907l-2.709 4.6902c-.929 1.6113-.5997 3.6984.8597 4.9301-.1691.9348-.5103 3.1424-.6586 6.4142-.0351.7809-.0574 1.5781-.0659 2.3788h-3.9105v-11.7187c0-.1239-.0293-.2368-.0773-.3372-.0021-.004-.0033-.0083-.0051-.0122l-3.125-6.25c-.1325-.2646-.4029-.4319-.6989-.4319s-.5664.1673-.6989.4319l-3.125 6.25c-.0018.0039-.003.0082-.0048.0122-.0489.1013-.0776.216-.0776.3372v11.7187h-3.5937v-20c0-1.2924 1.0513-2.3437 2.3437-2.3437zm24.6876 22.3437v-17.1874h4.6874v1.5624h-.7812c-.4315 0-.7812.3498-.7812.7813s.3497.7813.7812.7813h.7812v2.3437h-.7812c-.4315 0-.7812.3497-.7812.7813 0 .4315.3497.7812.7812.7812h.7812v2.3438h-.7812c-.4315 0-.7812.3497-.7812.7812s.3497.7812.7812.7812h.7812v3.125h-.7812c-.4315 0-.7812.3498-.7812.7813s.3497.7813.7812.7813h.7812v1.5624zm-8.4641-7.8665c.2838 0 .5664-.0326.8429-.0937.145.9293.358 2.5736.484 4.8352h-2.908c.1321-2.2601.3552-3.93.5093-4.8907.3461.0986.7065.1492 1.0718.1492zm0-1.5625c-1.7856 0-2.937-1.9433-2.0322-3.5131l2.0322-3.5181 2.0309 3.5177c.9015 1.5635-.234 3.5135-2.0309 3.5135zm-1.6528 7.8666h3.0484c.0164.5133.0277 1.0354.0332 1.5624h-3.1167c.0058-.5236.0177-1.0458.0351-1.5624zm-8.6331 1.5624v-10.9374h1.5624v10.9374zm-3.125 0v-10.9374h1.5624v10.9374zm.4827-12.5 1.861-3.7219 1.861 3.7219zm19.6958 27.0313h-13.7955c.1148-.3256.3021-.6241.5536-.8759.4431-.4428 1.0315-.6866 1.6571-.6866h9.375c1.0187 0 1.8875.6531 2.2098 1.5625zm-4.5535-3.125h-4.6876v-3.5937h4.6876zm13.75-5.1563h-32.1876c-1.2924 0-2.3437-1.0513-2.3437-2.3437v-2.3437h36.875v2.3437c0 1.2924-1.0513 2.3437-2.3437 2.3437z"/><path d="m39.5625 45.0312h-4.6875c-.4315 0-.7812.3498-.7812.7813s.3497.7813.7812.7813h4.6875c.4315 0 .7813-.3498.7813-.7813s-.3498-.7813-.7813-.7813z"/></g></svg>

<svg width="76" height="76" viewBox="0 0 76 76" fill="none" xmlns="http://www.w3.org/2000/svg">
<circle cx="38" cy="38" r="38" fill="#E4E4E4"/>
<path d="M42.6875 45.0312C42.2563 45.0312 41.9062 45.3813 41.9062 45.8125C41.9062 46.2437 42.2563 46.5938 42.6875 46.5938C43.1187 46.5938 43.4688 46.2437 43.4688 45.8125C43.4688 45.3813 43.1187 45.0312 42.6875 45.0312Z" fill="#29A867"/>
<path d="M54.0938 18H21.9062C19.7523 18 18 19.7523 18 21.9062V45.8125C18 47.9664 19.7523 49.7188 21.9062 49.7188H34.0938V53.3125H33.3125C32.2694 53.3125 31.2889 53.719 30.5507 54.4569C29.8127 55.1951 29.4062 56.1757 29.4062 57.2188C29.4062 57.6503 29.756 58 30.1875 58H45.8125C46.244 58 46.5938 57.6503 46.5938 57.2188C46.5938 55.0648 44.8414 53.3125 42.6875 53.3125H41.9062V49.7188H54.0938C56.2477 49.7188 58 47.9664 58 45.8125V21.9062C58 19.7523 56.2477 18 54.0938 18ZM21.9062 19.5625H54.0938C55.3862 19.5625 56.4375 20.6138 56.4375 21.9062V41.9062H52.8438V23.9375C52.8438 23.506 52.494 23.1562 52.0625 23.1562H45.8125C45.381 23.1562 45.0312 23.506 45.0312 23.9375V41.9062H41.1207C41.1125 41.0981 41.0914 40.3016 41.0579 39.5289C40.9211 36.3472 40.6096 34.2158 40.4475 33.2783C42.0594 32.0915 42.4995 29.8918 41.5141 28.1828L38.8063 23.4929C38.6665 23.2512 38.4086 23.1022 38.1297 23.1022C37.8505 23.1022 37.5926 23.2512 37.4531 23.4929L34.7441 28.1831C33.8151 29.7944 34.1444 31.8815 35.6038 33.1132C35.4347 34.048 35.0935 36.2556 34.9452 39.5274C34.9101 40.3083 34.8878 41.1055 34.8793 41.9062H30.9688V30.1875C30.9688 30.0636 30.9395 29.9507 30.8915 29.8503C30.8894 29.8463 30.8882 29.842 30.8864 29.8381L27.7614 23.5881C27.6289 23.3235 27.3585 23.1562 27.0625 23.1562C26.7665 23.1562 26.4961 23.3235 26.3636 23.5881L23.2386 29.8381C23.2368 29.842 23.2356 29.8463 23.2338 29.8503C23.1849 29.9516 23.1562 30.0663 23.1562 30.1875V41.9062H19.5625V21.9062C19.5625 20.6138 20.6138 19.5625 21.9062 19.5625V19.5625ZM46.5938 41.9062V24.7188H51.2812V26.2812H50.5C50.0685 26.2812 49.7188 26.631 49.7188 27.0625C49.7188 27.494 50.0685 27.8438 50.5 27.8438H51.2812V30.1875H50.5C50.0685 30.1875 49.7188 30.5372 49.7188 30.9688C49.7188 31.4003 50.0685 31.75 50.5 31.75H51.2812V34.0938H50.5C50.0685 34.0938 49.7188 34.4435 49.7188 34.875C49.7188 35.3065 50.0685 35.6562 50.5 35.6562H51.2812V38.7812H50.5C50.0685 38.7812 49.7188 39.131 49.7188 39.5625C49.7188 39.994 50.0685 40.3438 50.5 40.3438H51.2812V41.9062H46.5938ZM38.1297 34.0397C38.4135 34.0397 38.6961 34.0071 38.9726 33.946C39.1176 34.8753 39.3306 36.5196 39.4566 38.7812H36.5486C36.6807 36.5211 36.9038 34.8512 37.0579 33.8905C37.404 33.9891 37.7644 34.0397 38.1297 34.0397ZM38.1297 32.4772C36.3441 32.4772 35.1927 30.5339 36.0975 28.9641L38.1297 25.446L40.1606 28.9637C41.0621 30.5272 39.9266 32.4772 38.1297 32.4772ZM36.4769 40.3438H39.5253C39.5417 40.8571 39.553 41.3792 39.5585 41.9062H36.4418C36.4476 41.3826 36.4595 40.8604 36.4769 40.3438ZM27.8438 41.9062V30.9688H29.4062V41.9062H27.8438ZM24.7188 41.9062V30.9688H26.2812V41.9062H24.7188ZM25.2015 29.4062L27.0625 25.6843L28.9235 29.4062H25.2015ZM44.8973 56.4375H31.1018C31.2166 56.1119 31.4039 55.8134 31.6554 55.5616C32.0985 55.1188 32.6869 54.875 33.3125 54.875H42.6875C43.7062 54.875 44.575 55.5281 44.8973 56.4375ZM40.3438 53.3125H35.6562V49.7188H40.3438V53.3125ZM54.0938 48.1562H21.9062C20.6138 48.1562 19.5625 47.1049 19.5625 45.8125V43.4688H56.4375V45.8125C56.4375 47.1049 55.3862 48.1562 54.0938 48.1562Z" fill="#29A867"/>
<path d="M39.5625 45.0312H34.875C34.4435 45.0312 34.0938 45.381 34.0938 45.8125C34.0938 46.244 34.4435 46.5938 34.875 46.5938H39.5625C39.994 46.5938 40.3438 46.244 40.3438 45.8125C40.3438 45.381 39.994 45.0312 39.5625 45.0312Z" fill="#29A867"/>
</svg>
